X: 8
T: The Duke Of Leinster
R: reel
M: 4/4
L: 1/8
K: Gmaj
D|:G2BG dGBc|dBeB dBAB|G2BG dGBc|dBAB GEDE|
G2BG dGBc|dBeB dBAB|GB B2 dB B2|1dBAB GEDE:|2dBAB GEDB||
|:dega bg g2|agbg ageg|dega bage|dBAB GEDB|
dega bg g2|agbg agef|g2fg efge|1dBAB GEDB:|2dBAB GEDE||


Tune 1385	Setting 28176

